svg/300/sharp/speed_0_7x-fill.svg

<svg xmlns="http://www.w3.org/2000/svg" width="48" height="48" viewBox="0 -960 960 960"><path d="m539.385-290.001 111.692-198.307-103.615-181.691h51.537l80.385 141.461 79.385-141.461h50.768L707.306-489.077l112.693 199.076h-50.538l-90.462-157.462-89.231 157.462h-50.383Zm-359.384 2.231v-45.384h45.384v45.384h-45.384Zm133-.615 88.923-338.461H235.385v-45.384h212.691v47.768l-88.922 336.077h-46.153Z"/></svg>

<svg xmlns="http://www.w3.org/2000/svg" width="48" height="48" viewBox="0 -960 960 960"><path d="m539.38-290 111.7-198.31L547.46-670H599l80.38 141.46L758.77-670h50.77L707.31-489.08 820-290h-50.54L679-447.46 589.77-290h-50.39ZM180-287.77v-45.38h45.39v45.38H180Zm133-.62 88.92-338.46H235.39v-45.38h212.69v47.77l-88.93 336.07H313Z"/></svg>
